!!!COM: Bach, Johann Sebastian
!!!OTL: Christus ist erstanden, hat ueberwunden
!!!ONM: No. 200
!!!OCL: Erk
!!!YOE: Riemenschneider, Albert
!!!OPR: 371 Harmonized Chorales and 69 Chorale Melodies with Figured Bass
!!!OPT: Bach Chorale Harmonizations
**kern	**kern	**kern	**kern
! bass	! tenor	! alto	! soprano
*M4/4	*M4/4	*M4/4	*M4/4
*C:	*C:	*C:	*C:
=1	=1	=1	=1
4c	4e	4g	4cc
4B	4d	[4g	4g
4A	4c	8g]	4a
.	.	8f#	.
8G	4d	4g	4b
8F	.	.	.
=2	=2	=2	=2
4E	8c	[4g	2cc
.	8B-	.	.
4F	4A	8g]	.
.	.	[8f	.
4C;	4G;	8f]	4cc;
.	.	8e;	.
8c	4c	[4e	4g
8B-	.	.	.
=3	=3	=3	=3
4A	4c	8e]	4cc
.	.	8f#	.
4G	4d	4g	4b-
4C	4e-	4g	2a
4D	8d	4f#	.
.	8c	.	.
=4	=4	=4	=4
2GG;	2B-;	2d;	2g;
4G	4B-	8d	4g
.	.	[8e-	.
4F#	4c	8e-]	4a
.	.	[8d	.
=5	=5	=5	=5
4G	8B-	8d]	4b-
.	8G	8b-	.
4C	4e-	8a	4cc
.	.	8g	.
4D	[4d	8f#	4b-
.	.	[8g	.
4DD	8.d]	8g]	4a
.	.	8f#	.
.	16c	.	.
=6	=6	=6	=6
2GG;	2B-;	2d;	2g;
8C	[4c	8en	4g
8D	.	8f	.
8E	8c]	4g	4cc
8F	8d	.	.
=7	=7	=7	=7
4G	8e	4g	4cc
.	16d	.	.
.	16c	.	.
4GG	8d	4g	4b
.	[8f	.	.
2C;	8f]	2g;	2cc;
.	16e	.	.
.	16d	.	.
.	4e;	.	.
=8	=8	=8	=8
8F	4f	4a	4cc
8G	.	.	.
8F	4f	8a	4cc
8E	.	8g	.
8D	8f	8f	4dd
8E	8e	8g	.
8F	8d	[4a	4dd
8G	8e	.	.
=9	=9	=9	=9
8A	[4f	4a]	4cc
8F	.	.	.
8G	8f]	8b-	4b-
8C	8e	8g	.
2F;	2c;	2f;	2a;
=10	=10	=10	=10
8c	4c	4e	4g
8B-	.	.	.
4A	4c	8e	4a
.	.	8f#	.
8G	4d	[4g	4b-
8BB-	.	.	.
8C	8e-	8g]	4a
8D	16d	8f#	.
.	16c	.	.
=11	=11	=11	=11
2E-;	2B-;	2g;	2g;
4G	8B-	8d	4b-
.	8d	[8b-	.
4F	4f	8b-]	4cc
.	.	8a	.
=12	=12	=12	=12
8B-	4f	2b-	4dd
8A	.	.	.
8G	8e-	.	8ee-
8F	8f	.	8dd
8E-	8g	4b-	2cc
8C	8e-	.	.
4F	8c	4a	.
.	8f	.	.
=13	=13	=13	=13
2BB-;	2f;	2b-;	2dd;
4B-	4f	[4b-	4dd
4F	4f	8b-]	4cc
.	.	8a	.
=14	=14	=14	=14
8B-	4f	4b-	4dd
8A	.	.	.
8G	8e-	4a	4cc
8F#	8d	.	.
8G	4d	4g	4b-
8A	.	.	.
8B-	4c	4en	4g
8c	.	.	.
=15	=15	=15	=15
4F	4c	8f	4a
.	.	8e	.
4G	4G	8d	4bn
.	.	8fn	.
2C;	2G;	2en;	2cc;
==	==	==	==
*-	*-	*-	*-
!!!CDT: 1685/3//-1750/7/28
!!!OCY: Deutschland
!!!AGN: chorale
!!!AST: Baroque
!!!AIN: vox
!!!YOY: 1941
!!!PPP: New York; London
!!!PPR: G. Schirmer
!!!ENC: David Huron
!!!EED: David Huron
!!!YEN: United States of America
!!!YER: 1992
!!!YEC: Copyright 1992 David Huron
!!!YEM: Rights to all derivative electronic formats reserved.
!!!YER: March 20, 1996
!!!AMT: simple quadruple
!!!EEV: 1.1
